X:245
T:Land of Enchantment
C:Tim O'Brien
N:Written 1981 
L:1/8
Q:1/4=220
M:4/4
K:G
z8 | "Em"de ee ee ee | dB AG EE EE | EE DE GA Bd | "G"AB Bd BB BB | "D"^cd dd (3cdd dd | 
dB AF "Em"EE EE | EG EG "D"FE DF | "Em"E[EB,] [EB,][EB,] [EB,][EB,] de | ee ee ee ee | 
dB AG EE EE | EE DE GA Bd | "G"AB Bd BB BB | "D"^cd dd (3cdd dd | dB A"Em"F ED B,D | 
EG EG "D"FE DF | "Em"ED EG EG FG | "A"E2 EG FE FG | A^c Bc AF EF | "Em"GF EG Be df | 
ed ef ed BG | "A"ED EG FE FG | A^c Bc AB cA | (3"Em"BdB GB "D"AF DF | "Em"EB, EF EG FG | 
"A"E2 EG FE FG | A^c Bc AF EF | "Em"GF EG Be df | ed ef ed BG | "A"ED EG FE FG | 
A^c Bc AB cA | (3"Em"BdB GB "D"AF DF | "Em"E[EB,] [EB,][EB,] [E2B,2] z2 | de ee de eA | 
dB AG DE EE | EE DE GA Bd | "G"AB Bd BB BB | (3"D"^cdd dd (3cdd dd | dB AF "Em"ED B,D | 
EF GB A"D"F A^c | "Em"BA GF EG dG | Bd Bd eB de | ef ef ge (3fgf | ed Bd BA GF | 
"G"EF GA BG Bd | (3"D"cdc Bc AB GB | AG FD "Em"(3EFE B,D | EG, EG "D"FE DF | "Em"EB, EF E2 (3EFE | 
"A"^CE A^c BA cd | e^g ag ab ^c'a | "Em"bg eg eb d'b | d'e' e'd' e'd' bg | "A"e^c eg (3fgf e^g | 
a^g ab ^c'a ba | (3"Em"gbg eg "D"fd ed | Bd ee "Em"ee ee | (3"A"EFE ^CE A^c Bc | 
e^g ag ab ^c'a | "Em"ga bg fg af | ef ge de fd | "A"^cd ec Bc dA | GA BG FG EF | 
"Em"GF EG "D"FD B,D | "Em"EE [EB,][EB,] [E2B,2] [E2B,2] | de ee ee ee | dB AG EG ED | 
B,D EF GB AG | "G"EG DG Bd Bd | "D"eA de GA eF | Fe EF "Em"EE B,D | EB, EG "D"FE DF | 
(3"Em"EFE B,A Bd ed | ee de ed ee | de ef gf ed | (3BdB AG EF GA | "G"BG Bd g2 ga | 
"D"bg ag fg af | df ed "Em"Bd ef | ge (3fgf "D"ed Bd | "Em"ee ee ee ef | "A"gf gf e^c e^g | 
a^g af e^c e^a | "Em"b^a ba ge gb | d'^c' d'c' bg bd' | "A"^c'b ab g2 e^c | e^c Bc AB cA | 
"Em"BG EG "D"FD B,D | B,D E"Em"[GE] [G4E4] | "A"z2 EG GG AG | AG EG BG Ad | "Em"^cA Bc dB cd | 
e^d ef gf g^g | "A"ae dg ed ^cA | (3BdB GB AG FG | "Em"EF GE "D"FE DF | "Em"EB, B,B, B,d ee | 
[e2e2] [e2e2] [e2e2] [e2e2] | dB AG E2 EE | EE DE GA Bd | AB BB BB BB | (3"G"^cdd (3ddd (3ddd (3ddd | 
"D"dB AF ED B,D | EF GB "Em"AF DF | EB, B,B, "D"B,d ee | "Em"ee ee ee ee | ee BG EE EE | 
EE DE GA Bd | AB BB (3BBB (3BBB | (3"G"^cdd (3ddd (3ddd (3ddd | "D"dB AF ED B,D | 
EF GE "Em"FE DF | EB, (3[EB,][EB,][EB,] (3[EB,][EB,][EB,] (3[EB,][EB,][EB,] | 
(3[AFD][AFD][AFD] (3[AFD][AFD][AFD] (3[AFD][AFD][AFD] (3[AFD][AFD][AFD] | (3[AE^C][AEC][AEC] (3[AEC][AEC][AEC] (3[AEC][AEC][AEC] (3[AEC][AEC][AEC] | 
(3[AGE][AGE][AGE] (3[AGE][AGE][AGE] (3[AGE][AGE][AGE] (3[AGE][AGE][AGE] | (3[BG][BG][BG] (3[BG][BG][BG] (3[BG][BG][BG] (3[BG][BG][BG] | 
"Fade out - decre"(3[BG][BG][BG] (3[BG][BG][BG] (3[BG][BG][BG] (3[BG][BG][BG] | 
(3[BG][BG][BG] (3zzz (3zzz (3zzz | (3zzz (3zzz (3zzz (3zzz | 
 

